X:1
T:Title
%%score { ( 1 3 ) | 2 }
L:1/8
M:4/4
K:G
V:1 treble nm="Grand Piano"
V:3 treble 
V:2 bass 
V:1
 z4 z2[Q:1/4=100] D>D | B>B A>A G>G D>G | F2 E2 E2 A>B | c6 z2 | B6 z2 | B>B A>A G>G D>[DG] | %6
 [DF]2 E2 E2 c>e | d6 z2 | [B,DG]6 G>A | B>B B>B [^DB]>[DB] [DB]>[DB] | %10
[M:9/8] [EG]2 [EA]- [EA] [^DB]2- [DB]B>c |[M:4/4] d>d d>d e>d c>B | A2 G2 A2 D>D | %13
 B>B A>A G>G D>[DG] | [DF]2 E2 E2 c>e | d6 z2 |[M:3/4] [B,DG]6 |] %17
V:2
 z4 z2 D,>D, | [G,D]>[G,D] [D,F,C]>[D,F,C] [E,G,B,]>[E,G,B,] [B,,G,B,]>[B,,G,B,] | %2
 [C,G,D]2 [C,G,C]2 [C,G,C]2 z2 | z2 [D,D]>[D,D] [D,D]2 z2 | z2 [G,D]>[G,D] [G,D]2 D,>D, | %5
 [G,D]>[G,D] [D,F,C]>[D,F,C] [E,G,B,]>[E,G,B,] [B,,G,]>[B,,G,] | [C,G,]2 [C,G,C]2 [C,G,C]2 z2 | %7
 z2 [D,D]>[D,D] [D,D]2 [D,CD]>[D,CD] | [G,,G,]6 [G,B,D]>[G,A,D] | %9
 [G,D]>[G,D] [E,G,E]>[E,G,E] [B,,F,]>[B,,F,] [B,,F,]>[B,,E,] | %10
[M:9/8] [E,G,]2 [C,E,]- [C,E,] [B,,F,]2- [B,,F,][K:treble][G,D]>[A,DF] | %11
[M:4/4] [B,DG]>[B,DG] [B,DG]>[B,DA] [CG]>[B,DG] [A,DF]>[G,DG] | [F,D]2 [E,G,^C]2 [D,F,D]2 D,>D, | %13
 [G,D]>[G,D] [D,F,C]>[D,F,C] [E,G,B,]>[E,G,B,] [B,,G,B,]>[B,,G,B,] | [C,G,]2 [C,G,C]2 [C,G,C]2 z2 | %15
 z2 [D,D]>[D,D] [D,D]2 [D,CD]>[D,CD] |[M:3/4] [G,,G,]6 |] %17
V:3
 x8 | x8 | x8 | z2 F>F F2 A>d | z2 G>G G2 D>D | x8 | x8 | z2 F>F F2 F>A | x8 | x8 |[M:9/8] x9 | %11
[M:4/4] x8 | x8 | x8 | x8 | z2 F>F F2 F>A |[M:3/4] x6 |] %17

